dist/img/masks/s_services_mask.svg

<svg width="242" height="216" viewBox="0 0 242 216" fill="none" xmlns="http://www.w3.org/2000/svg" xmlns:xlink="http://www.w3.org/1999/xlink">

<path fill-rule="evenodd" clip-rule="evenodd" d="M238.642 0H113.777C112.189 0 110.816 1.39272 110.486 3.33902L106.625 26.1102C106.295 28.0565 104.922 29.4492 103.334 29.4492H33.4498C31.8621 29.4492 30.4887 30.842 30.1586 32.7882L0.0741463 210.187C-0.368427 212.809 1.22624 215.279 3.36534 215.279H153.148C154.736 215.279 156.109 213.886 156.439 211.94L160.3 189.168C160.63 187.222 162.003 185.829 163.591 185.829H208.561C210.149 185.829 211.522 184.437 211.852 182.49L241.933 5.092C242.376 2.46911 240.781 0 238.642 0Z" fill="#FC00FF"/>

</svg>

<svg width="242" height="216" viewBox="0 0 242 216" fill="none" xmlns="http://www.w3.org/2000/svg" xmlns:xlink="http://www.w3.org/1999/xlink"><path fill-rule="evenodd" clip-rule="evenodd" d="M238.642 0H113.777c-1.588 0-2.961 1.393-3.291 3.339l-3.861 22.771c-.33 1.947-1.703 3.34-3.291 3.34H33.45c-1.588 0-2.961 1.392-3.291 3.338L.074 210.187c-.442 2.622 1.152 5.092 3.291 5.092h149.783c1.588 0 2.961-1.393 3.291-3.339l3.861-22.772c.33-1.946 1.703-3.339 3.291-3.339h44.97c1.588 0 2.961-1.392 3.291-3.339L241.933 5.092C242.376 2.469 240.781 0 238.642 0z" fill="#FC00FF"/></svg>
